apps/www/public/images/pricing/compute/compute-grid-dark.svg

<svg width="541" height="285" viewBox="0 0 541 285" fill="none" xmlns="http://www.w3.org/2000/svg">
<g clip-path="url(#clip0_230_15407)">
<path d="M146.063 70.8232L104.316 94.6787L146.063 118.534M146.063 70.8232L187.811 94.6787L146.063 118.534M146.063 70.8232V118.534" stroke="#282828" stroke-width="1.49023"/>
<path d="M313.308 -25L21 142.033L313.308 309.067" stroke="#282828" stroke-width="1.49023"/>
<path d="M62.5693 118.534L20.8223 142.39L62.5693 166.245M62.5693 118.534L104.316 142.39L62.5693 166.245M62.5693 118.534V166.245" stroke="#282828" stroke-width="1.49023"/>
<path d="M146.063 118.534L104.316 142.39L146.063 166.245M146.063 118.534L187.811 142.39L146.063 166.245M146.063 118.534V166.245" stroke="#282828" stroke-width="1.49023"/>
<path d="M146.063 166.245L104.316 190.101L146.063 213.956M146.063 166.245L187.811 190.101L146.063 213.956M146.063 166.245V213.956" stroke="#282828" stroke-width="1.49023"/>
<path d="M229.558 70.8232L187.811 94.6787L229.558 118.534M229.558 70.8232L271.305 94.6787L229.558 118.534M229.558 70.8232V118.534" stroke="#282828" stroke-width="1.49023"/>
<path d="M229.558 23.1123L187.811 46.9678L229.558 70.8232M229.558 23.1123L271.305 46.9678L229.558 70.8232M229.558 23.1123V70.8232" stroke="#282828" stroke-width="1.49023"/>
<path d="M229.558 118.534L187.811 142.39L229.558 166.245M229.558 118.534L271.305 142.39L229.558 166.245M229.558 118.534V166.245" stroke="#282828" stroke-width="1.49023"/>
<path d="M229.558 166.245L187.811 190.101L229.558 213.956M229.558 166.245L271.305 190.101L229.558 213.956M229.558 166.245V213.956" stroke="#282828" stroke-width="1.49023"/>
<path d="M229.558 213.956L187.811 237.812L229.558 261.667M229.558 213.956L271.305 237.812L229.558 261.667M229.558 213.956V261.667" stroke="#282828" stroke-width="1.49023"/>
<path d="M313.052 70.8232L271.305 94.6787L313.052 118.534M313.052 70.8232L354.799 94.6787L313.052 118.534M313.052 70.8232V118.534" stroke="#282828" stroke-width="1.49023"/>
<path d="M313.052 23.1123L271.305 46.9678L313.052 70.8232M313.052 23.1123L354.799 46.9678L313.052 70.8232M313.052 23.1123V70.8232" stroke="#282828" stroke-width="1.49023"/>
<path d="M313.052 -24.5991L271.305 -0.743664L313.052 23.1118M313.052 -24.5991L354.799 -0.743664L313.052 23.1118M313.052 -24.5991V23.1118" stroke="#282828" stroke-width="1.49023"/>
<path d="M313.052 118.534L271.305 142.39L313.052 166.245M313.052 118.534L354.799 142.39L313.052 166.245M313.052 118.534V166.245" stroke="#282828" stroke-width="1.49023"/>
<path d="M271.477 142.385L229.518 166.317L187.248 142.385" stroke="#282828" stroke-width="1.49023"/>
<path d="M313.052 166.245L271.305 190.101L313.052 213.956M313.052 166.245L354.799 190.101L313.052 213.956M313.052 166.245V213.956" stroke="#282828" stroke-width="1.49023"/>
<path d="M313.052 213.957L271.305 237.812L313.052 261.667M313.052 213.957L354.799 237.812L313.052 261.667M313.052 213.957V261.667" stroke="#282828" stroke-width="1.49023"/>
<path d="M313.052 261.757L271.305 285.612L313.052 309.468M313.052 261.757L354.799 285.612L313.052 309.468M313.052 261.757V309.468" stroke="#282828" stroke-width="1.49023"/>
<path d="M396.548 70.8232L354.801 94.6787L396.548 118.534M396.548 70.8232L438.295 94.6787L396.548 118.534M396.548 70.8232V118.534" stroke="#282828" stroke-width="1.49023"/>
<path d="M480.04 70.8232L438.293 94.6787L480.04 118.534M480.04 70.8232L521.787 94.6787L480.04 118.534M480.04 70.8232V118.534" stroke="#282828" stroke-width="1.49023"/>
<path d="M563.747 70.8232L522 94.6787L563.747 118.534M563.747 70.8232L605.494 94.6787L563.747 118.534M563.747 70.8232V118.534" stroke="#282828" stroke-width="1.49023"/>
<path d="M480.04 23.1123L438.293 46.9678L480.04 70.8232M480.04 23.1123L521.787 46.9678L480.04 70.8232M480.04 23.1123V70.8232" stroke="#282828" stroke-width="1.49023"/>
<path d="M563.747 23.1123L522 46.9678L563.747 70.8232M563.747 23.1123L605.494 46.9678L563.747 70.8232M563.747 23.1123V70.8232" stroke="#282828" stroke-width="1.49023"/>
<path d="M480.04 -24.5991L438.293 -0.743664L480.04 23.1118M480.04 -24.5991L521.787 -0.743664L480.04 23.1118M480.04 -24.5991V23.1118" stroke="#282828" stroke-width="1.49023"/>
<path d="M563.747 -24.5991L522 -0.743664L563.747 23.1118M563.747 -24.5991L605.494 -0.743664L563.747 23.1118M563.747 -24.5991V23.1118" stroke="#282828" stroke-width="1.49023"/>
<path d="M480.04 166.245L438.293 190.1L480.04 213.956M480.04 166.245L521.787 190.1L480.04 213.956M480.04 166.245V213.956" stroke="#282828" stroke-width="1.49023"/>
<path d="M563.747 166.245L522 190.1L563.747 213.956M563.747 166.245L605.494 190.1L563.747 213.956M563.747 166.245V213.956" stroke="#282828" stroke-width="1.49023"/>
<path d="M396.548 23.1123L354.801 46.9678L396.548 70.8232M396.548 23.1123L438.295 46.9678L396.548 70.8232M396.548 23.1123V70.8232" stroke="#282828" stroke-width="1.49023"/>
<path d="M396.548 -24.5991L354.801 -0.743664L396.548 23.1118M396.548 -24.5991L438.295 -0.743664L396.548 23.1118M396.548 -24.5991V23.1118" stroke="#282828" stroke-width="1.49023"/>
<path d="M396.548 118.534L354.801 142.39L396.548 166.245M396.548 118.534L438.295 142.39L396.548 166.245M396.548 118.534V166.245" stroke="#282828" stroke-width="1.49023"/>
<path d="M396.548 213.956L354.801 237.811L396.548 261.666M396.548 213.956L438.295 237.811L396.548 261.666M396.548 213.956V261.666" stroke="#282828" stroke-width="1.49023"/>
<path d="M480.04 118.534L438.293 142.39L480.04 166.245M480.04 118.534L521.787 142.39L480.04 166.245M480.04 118.534V166.245" stroke="#282828" stroke-width="1.49023"/>
<path d="M563.747 118.534L522 142.39L563.747 166.245M563.747 118.534L605.494 142.39L563.747 166.245M563.747 118.534V166.245" stroke="#282828" stroke-width="1.49023"/>
<path d="M480.04 213.956L438.293 237.811L480.04 261.666M480.04 213.956L521.787 237.811L480.04 261.666M480.04 213.956V261.666" stroke="#282828" stroke-width="1.49023"/>
<path d="M563.747 213.956L522 237.811L563.747 261.666M563.747 213.956L605.494 237.811L563.747 261.666M563.747 213.956V261.666" stroke="#282828" stroke-width="1.49023"/>
<path d="M480.04 261.757L438.293 285.612L480.04 309.468M480.04 261.757L521.787 285.612L480.04 309.468M480.04 261.757V309.468" stroke="#282828" stroke-width="1.49023"/>
<path d="M563.747 261.757L522 285.612L563.747 309.468M563.747 261.757L605.494 285.612L563.747 309.468M563.747 261.757V309.468" stroke="#282828" stroke-width="1.49023"/>
<path d="M396.548 166.245L354.801 190.101L396.548 213.956M396.548 166.245L438.295 190.101L396.548 213.956M396.548 166.245V213.956" stroke="#282828" stroke-width="1.49023"/>
<path d="M396.548 261.667L354.801 285.522L396.548 309.377M396.548 261.667L438.295 285.522L396.548 309.377M396.548 261.667V309.377" stroke="#282828" stroke-width="1.49023"/>
</g>
<defs>
<clipPath id="clip0_230_15407">
<rect width="541" height="285" fill="white"/>
</clipPath>
</defs>
</svg>

<svg xmlns="http://www.w3.org/2000/svg" width="541" height="285" fill="none" viewBox="0 0 541 285"><g stroke="#282828" stroke-width="1.49" clip-path="url(#a)"><path d="M146.063 70.823 104.316 94.68l41.747 23.855m0-47.71 41.748 23.855-41.748 23.855m0-47.71v47.71"/><path d="M313.308-25 21 142.033l292.308 167.034"/><path d="M62.57 118.534 20.821 142.39l41.747 23.855m0-47.711 41.747 23.856-41.747 23.855m0-47.711v47.711M146.063 118.534l-41.747 23.856 41.747 23.855m0-47.711 41.748 23.856-41.748 23.855m0-47.711v47.711M146.063 166.245l-41.747 23.856 41.747 23.855m0-47.711 41.748 23.856-41.748 23.855m0-47.711v47.711M229.558 70.823 187.811 94.68l41.747 23.855m0-47.71 41.747 23.855-41.747 23.855m0-47.71v47.71"/><path d="m229.558 23.112-41.747 23.856 41.747 23.855m0-47.71 41.747 23.855-41.747 23.855m0-47.71v47.71M229.558 118.534l-41.747 23.856 41.747 23.855m0-47.711 41.747 23.856-41.747 23.855m0-47.711v47.711M229.558 166.245l-41.747 23.856 41.747 23.855m0-47.711 41.747 23.856-41.747 23.855m0-47.711v47.711"/><path d="m229.558 213.956-41.747 23.856 41.747 23.855m0-47.711 41.747 23.856-41.747 23.855m0-47.711v47.711M313.052 70.823 271.305 94.68l41.747 23.855m0-47.71 41.747 23.855-41.747 23.855m0-47.71v47.71"/><path d="m313.052 23.112-41.747 23.856 41.747 23.855m0-47.71 41.747 23.855-41.747 23.855m0-47.71v47.71"/><path d="M313.052-24.6 271.305-.743l41.747 23.856m0-47.711L354.799-.744l-41.747 23.856m0-47.711v47.71M313.052 118.534l-41.747 23.856 41.747 23.855m0-47.711 41.747 23.856-41.747 23.855m0-47.711v47.711"/><path d="m271.477 142.385-41.959 23.932-42.27-23.932M313.052 166.245l-41.747 23.856 41.747 23.855m0-47.711 41.747 23.856-41.747 23.855m0-47.711v47.711M313.052 213.957l-41.747 23.855 41.747 23.855m0-47.71 41.747 23.855-41.747 23.855m0-47.71v47.71M313.052 261.757l-41.747 23.855 41.747 23.856m0-47.711 41.747 23.855-41.747 23.856m0-47.711v47.711M396.548 70.823 354.801 94.68l41.747 23.855m0-47.71 41.747 23.855-41.747 23.855m0-47.71v47.71"/><path d="M480.04 70.823 438.293 94.68l41.747 23.855m0-47.71 41.747 23.855-41.747 23.855m0-47.71v47.71M563.747 70.823 522 94.68l41.747 23.855m0-47.71 41.747 23.855-41.747 23.855m0-47.71v47.71"/><path d="m480.04 23.112-41.747 23.856 41.747 23.855m0-47.71 41.747 23.855-41.747 23.855m0-47.71v47.71M563.747 23.112 522 46.968l41.747 23.855m0-47.71 41.747 23.855-41.747 23.855m0-47.71v47.71"/><path d="M480.04-24.6 438.293-.743l41.747 23.856m0-47.711L521.787-.744 480.04 23.112m0-47.711v47.71M563.747-24.6 522-.743l41.747 23.856m0-47.711L605.494-.744l-41.747 23.856m0-47.711v47.71M480.04 166.245 438.293 190.1l41.747 23.856m0-47.711 41.747 23.855-41.747 23.856m0-47.711v47.711M563.747 166.245 522 190.1l41.747 23.856m0-47.711 41.747 23.855-41.747 23.856m0-47.711v47.711M396.548 23.112l-41.747 23.856 41.747 23.855m0-47.71 41.747 23.855-41.747 23.855m0-47.71v47.71"/><path d="M396.548-24.6 354.801-.743l41.747 23.856m0-47.711L438.295-.744l-41.747 23.856m0-47.711v47.71M396.548 118.534l-41.747 23.856 41.747 23.855m0-47.711 41.747 23.856-41.747 23.855m0-47.711v47.711M396.548 213.956l-41.747 23.855 41.747 23.855m0-47.71 41.747 23.855-41.747 23.855m0-47.71v47.71"/><path d="m480.04 118.534-41.747 23.856 41.747 23.855m0-47.711 41.747 23.856-41.747 23.855m0-47.711v47.711M563.747 118.534 522 142.39l41.747 23.855m0-47.711 41.747 23.856-41.747 23.855m0-47.711v47.711M480.04 213.956l-41.747 23.855 41.747 23.855m0-47.71 41.747 23.855-41.747 23.855m0-47.71v47.71M563.747 213.956 522 237.811l41.747 23.855m0-47.71 41.747 23.855-41.747 23.855m0-47.71v47.71M480.04 261.757l-41.747 23.855 41.747 23.856m0-47.711 41.747 23.855-41.747 23.856m0-47.711v47.711M563.747 261.757 522 285.612l41.747 23.856m0-47.711 41.747 23.855-41.747 23.856m0-47.711v47.711M396.548 166.245l-41.747 23.856 41.747 23.855m0-47.711 41.747 23.856-41.747 23.855m0-47.711v47.711M396.548 261.667l-41.747 23.855 41.747 23.855m0-47.71 41.747 23.855-41.747 23.855m0-47.71v47.71"/></g><defs><clipPath id="a"><path fill="#fff" d="M0 0h541v285H0z"/></clipPath></defs></svg>
